lib/flags/l/702.svg

<svg xmlns="http://www.w3.org/2000/svg" fill="none" viewBox="0 0 32 24"><mask id="702_svg__a" width="32" height="24" x="0" y="0" mask-type="alpha" maskUnits="userSpaceOnUse"><path fill="#fff" d="M0 0H32V24H0z"/></mask><g mask="url(#702_svg__a)"><path fill="#F7FCFF" fill-rule="evenodd" d="M0 0V24H32V0H0Z" clip-rule="evenodd"/><mask id="702_svg__b" width="32" height="24" x="0" y="0" mask-type="alpha" maskUnits="userSpaceOnUse"><path fill="#fff" fill-rule="evenodd" d="M0 0V24H32V0H0Z" clip-rule="evenodd"/></mask><g fill-rule="evenodd" clip-rule="evenodd" mask="url(#702_svg__b)"><path fill="#E31D1C" d="M0 0V12H32V0H0Z"/><path fill="#F1F9FF" d="M8.8684 10.5896C8.8684 10.5896 6.04271 9.45307 6.04271 6.37399C6.04271 3.29492 8.8684 2.19514 8.8684 2.19514C7.49506 1.84747 3.85095 2.15843 3.85095 6.37399C3.85095 10.5896 7.44 11.3846 8.8684 10.5896ZM9.59237 10.0806L10.403 9.59123L11.2315 10.0806L11.0287 9.12565L11.7022 8.37231H10.7897L10.403 7.48061L10.0163 8.37231L9.10222 8.41095L9.77727 9.12565L9.59237 10.0806ZM13.3493 9.53659L12.5387 10.026L12.7236 9.071L12.0485 8.3563L12.9626 8.31766L13.3493 7.42596L13.736 8.31766H14.6485L13.975 9.071L14.1778 10.026L13.3493 9.53659ZM11.2872 5.76985L12.0978 5.28048L12.9263 5.76985L12.7235 4.81489L13.397 4.06155H12.4845L12.0978 3.16985L11.7111 4.06155L10.797 4.10019L11.472 4.81489L11.2872 5.76985ZM9.36978 7.22264L8.55916 7.71201L8.74406 6.75705L8.06901 6.04236L8.98306 6.00371L9.36978 5.11201L9.7565 6.00371H10.669L9.99551 6.75705L10.1983 7.71201L9.36978 7.22264ZM13.9176 7.66816L14.7282 7.17879L15.5567 7.66816L15.3539 6.7132L16.0274 5.95986H15.1149L14.7282 5.06816L14.3415 5.95986L13.4274 5.9985L14.1025 6.7132L13.9176 7.66816Z"/></g></g></svg>

<svg xmlns="http://www.w3.org/2000/svg" fill="none" viewBox="0 0 32 24"><mask id="702_svg__a" width="32" height="24" x="0" y="0" maskUnits="userSpaceOnUse"><path fill="#fff" d="M0 0h32v24H0z"/></mask><g mask="url(#702_svg__a)"><path fill="#F7FCFF" fill-rule="evenodd" d="M0 0v24h32V0H0z" clip-rule="evenodd"/><mask id="702_svg__b" width="32" height="24" x="0" y="0" maskUnits="userSpaceOnUse"><path fill="#fff" fill-rule="evenodd" d="M0 0v24h32V0H0z" clip-rule="evenodd"/></mask><g fill-rule="evenodd" clip-rule="evenodd" mask="url(#702_svg__b)"><path fill="#E31D1C" d="M0 0v12h32V0H0z"/><path fill="#F1F9FF" d="M8.868 10.59S6.043 9.453 6.043 6.374s2.825-4.179 2.825-4.179c-1.373-.347-5.017-.037-5.017 4.179s3.589 5.01 5.017 4.216zm.724-.51l.811-.489.829.49-.203-.955.673-.754h-.912l-.387-.891-.387.891-.914.039.675.715-.185.955zm3.757-.543l-.81.489.185-.955-.675-.715.914-.038.386-.892.387.892h.912l-.673.753.203.955-.829-.49zM11.287 5.77l.81-.49.83.49-.204-.955.674-.753h-.912l-.387-.892-.387.892-.914.038.675.715-.185.955zM9.37 7.223l-.81.489.184-.955-.675-.715.914-.038.387-.892.387.892h.912l-.673.753.202.955-.828-.49zm4.548.445l.81-.49.829.49-.203-.955.673-.753h-.912l-.387-.892-.386.892-.915.039.675.714-.184.955z"/></g></g></svg>
